projects/flag-game/flags/Western Sahara.svg

<svg viewBox="0 0 1000 500" xmlns="http://www.w3.org/2000/svg"><g fill-rule="evenodd"><path d="m0 0h1000v250h-1000zm0 0"/><path d="m0 250h1000v250h-1000zm0 0" fill="#007a3d"/><path d="m0 166.667969h1000v166.664062h-1000zm0 0" fill="#fff"/><path d="m0 0 333.332031 250-333.332031 250zm0 0" fill="#c4111b"/><path d="m566.667969 250c0 36.816406-29.851563 66.667969-66.667969 66.667969s-66.667969-29.851563-66.667969-66.667969 29.851563-66.667969 66.667969-66.667969 66.667969 29.851563 66.667969 66.667969zm0 0" fill="#c4111b"/><path d="m591.667969 250c0 36.816406-29.851563 66.667969-66.667969 66.667969s-66.667969-29.851563-66.667969-66.667969 29.851563-66.667969 66.667969-66.667969 66.667969 29.851563 66.667969 66.667969zm0 0" fill="#fff"/><path d="m482.105469 290.363281 28.425781-20.320312 28.207031 20.628906-10.539062-33.316406 28.328125-20.449219-34.9375-.269531-10.695313-33.269531-11.058593 33.15625-34.9375-.113282 28.113281 20.757813zm0 0" fill="#c4111b"/></g></svg>

<?xml version="1.0" encoding="UTF-8"?>
<svg xmlns="http://www.w3.org/2000/svg" xmlns:xlink="http://www.w3.org/1999/xlink" viewBox="0 0 1000 500" version="1.1">
<g id="surface1309">
<path style=" stroke:none;fill-rule:evenodd;fill:rgb(0%,0%,0%);fill-opacity:1;" d="M 0 0 L 1000 0 L 1000 250 L 0 250 Z M 0 0 "/>
<path style=" stroke:none;fill-rule:evenodd;fill:rgb(0%,47.842407%,23.921204%);fill-opacity:1;" d="M 0 250 L 1000 250 L 1000 500 L 0 500 Z M 0 250 "/>
<path style=" stroke:none;fill-rule:evenodd;fill:rgb(99.998474%,99.998474%,99.998474%);fill-opacity:1;" d="M 0 166.667969 L 1000 166.667969 L 1000 333.332031 L 0 333.332031 Z M 0 166.667969 "/>
<path style=" stroke:none;fill-rule:evenodd;fill:rgb(76.861572%,6.666565%,10.588074%);fill-opacity:1;" d="M 0 0 L 333.332031 250 L 0 500 Z M 0 0 "/>
<path style=" stroke:none;fill-rule:evenodd;fill:rgb(76.861572%,6.666565%,10.588074%);fill-opacity:1;" d="M 566.667969 250 C 566.667969 286.816406 536.816406 316.667969 500 316.667969 C 463.183594 316.667969 433.332031 286.816406 433.332031 250 C 433.332031 213.183594 463.183594 183.332031 500 183.332031 C 536.816406 183.332031 566.667969 213.183594 566.667969 250 Z M 566.667969 250 "/>
<path style=" stroke:none;fill-rule:evenodd;fill:rgb(99.998474%,99.998474%,99.998474%);fill-opacity:1;" d="M 591.667969 250 C 591.667969 286.816406 561.816406 316.667969 525 316.667969 C 488.183594 316.667969 458.332031 286.816406 458.332031 250 C 458.332031 213.183594 488.183594 183.332031 525 183.332031 C 561.816406 183.332031 591.667969 213.183594 591.667969 250 Z M 591.667969 250 "/>
<path style=" stroke:none;fill-rule:evenodd;fill:rgb(76.861572%,6.666565%,10.588074%);fill-opacity:1;" d="M 482.105469 290.363281 L 510.53125 270.042969 L 538.738281 290.671875 L 528.199219 257.355469 L 556.527344 236.90625 L 521.589844 236.636719 L 510.894531 203.367188 L 499.835938 236.523438 L 464.898438 236.410156 L 493.011719 257.167969 Z M 482.105469 290.363281 "/>
</g>
</svg>
